src/public/images/logo.svg

<svg width="97" height="49" viewBox="0 0 97 49" fill="none" xmlns="http://www.w3.org/2000/svg">
<rect x="5.16235" y="5.08783" width="33" height="33" rx="3" transform="rotate(9 5.16235 5.08783)" fill="#FFE121"/>
<path d="M20.0487 30.3777L26.9758 29.8933L27.2612 33.9753L15.046 34.8295L13.528 13.1205L18.8161 12.7507L20.0487 30.3777Z" fill="white"/>
<path d="M42.5858 20.4888L43.3182 30.9633C43.3915 32.0107 43.7056 32.799 44.2605 33.3283C44.8154 33.8575 45.5917 34.0873 46.5893 34.0175C47.5868 33.9478 48.3319 33.6116 48.8244 33.0092C49.3169 32.4067 49.5265 31.5817 49.4532 30.5343L48.7208 20.0598L52.9854 19.7616L53.7161 30.2111C53.8254 31.774 53.5853 33.119 52.9958 34.2462C52.4063 35.3734 51.5655 36.2508 50.4733 36.8786C49.3977 37.5051 48.1699 37.8666 46.79 37.9631C45.41 38.0596 44.1528 37.8802 43.0182 37.4249C41.8992 36.9518 40.986 36.197 40.2786 35.1605C39.5701 34.1074 39.1612 32.7994 39.0519 31.2365L38.3212 20.787L42.5858 20.4888ZM80.0712 17.8676L76.7316 35.694L71.5692 36.055L67.9703 24.7284L65.8831 36.4526L60.7207 36.8136L55.0573 19.6167L59.6211 19.2976L63.0311 31.8654L65.2574 18.9035L69.9459 18.5756L73.8298 31.1102L75.4824 18.1885L80.0712 17.8676ZM86.7134 20.8365L86.9611 24.3778L92.6721 23.9785L92.9023 27.2704L87.1913 27.6698L87.4598 31.5104L93.919 31.0588L94.158 34.4754L83.4341 35.2253L82.2099 17.718L92.9337 16.9682L93.1726 20.3848L86.7134 20.8365Z" fill="#7CBD1E"/>
</svg>

<svg xmlns="http://www.w3.org/2000/svg" width="97" height="49" fill="none" xmlns:v="https://vecta.io/nano"><rect x="5.162" y="5.088" width="33" height="33" rx="3" transform="rotate(9 5.162 5.088)" fill="#ffe121"/><path d="M20.049 30.378l6.927-.484.285 4.082-12.215.854-1.518-21.709 5.288-.37 1.233 17.627z" fill="#fff"/><path d="M42.586 20.489l.732 10.474c.073 1.047.387 1.836.942 2.365s1.331.759 2.329.689 1.743-.406 2.235-1.008.702-1.427.629-2.475l-.732-10.475 4.265-.298.731 10.449c.109 1.563-.131 2.908-.72 4.035s-1.43 2.005-2.523 2.632c-1.076.627-2.303.988-3.683 1.084s-2.637-.083-3.772-.538c-1.119-.473-2.032-1.228-2.74-2.264-.709-1.053-1.117-2.361-1.227-3.924l-.731-10.449 4.265-.298zm37.485-2.621l-3.34 17.826-5.162.361-3.599-11.327-2.087 11.724-5.162.361-5.663-17.197 4.564-.319 3.41 12.568 2.226-12.962 4.688-.328L73.83 31.11l1.653-12.922 4.589-.321zm6.642 2.969l.248 3.541 5.711-.399.23 3.292-5.711.399.269 3.841 6.459-.452.239 3.417-10.724.75-1.224-17.507 10.724-.75.239 3.417-6.459.452z" fill="#7cbd1e"/></svg>
